X:1
T: Miss Jane Muirhead of Dunsmuir
T: 8 x 32S 3C (Dunsmuir Dances)
P: Miss Jane Muirhead of Dunsmuir
C: Ron Wallace, 4-12-2001
M: 6/8
N: arr. Terry Traub 2013-04-26
R: strathspey
L: 1/8
K: Em
G>A|"Em"B<EE>D "C"E>FG>A|"G"B<gg>f "C"g2 e>g|"G"b<BB>A "Em"G>A!beambr1!B<G|"Bm"A2 B<d "C"e>de>f|"Em"g<BB>g "Bm"f>B!beambr1!A<f|
"C"e>G ED "G"B,2 "D"DF|"C"G>FG>A "Em"B<e e2|"Bm"B,2 B<d "Em"e2 || e>f|"C"g>f!beambr1!e<g "G"d<B B2|"Em"B<BB>A "C"G2 G>A|"Em"B<EE>F "Am"G>A!beambr1!B<e|
"Bm"A2 B<d "C"e>de>f|"Em"g>f!beambr1!g<b "D"a<d (3def|"C"g>fe>d "G"B>cB>A|"C"G>FG>A "Em"B<e e2|"Bm"B,2 B<d "Em"e3 |]
